src/images/circuits/french.svg

<svg width="40" height="18" viewBox="0 0 40 18" fill="none" xmlns="http://www.w3.org/2000/svg">
<path d="M33.7988 8.8828C39.995 10.2867 38.1775 11.4445 38.8384 13.7586C39.0036 14.3637 39.1853 15.7887 38.5905 16.6479C37.8469 17.722 36.525 17.061 36.112 16.4001C35.6989 15.7391 37.2686 13.9216 37.2686 12.2692C37.2686 10.6169 35.451 12.0214 34.2118 12.5171C32.9725 13.0128 32.1463 12.6823 31.3202 11.9388C30.494 11.1952 29.2548 11.2778 28.5938 11.6909C28.2639 11.8971 28.217 12.5642 28.2686 13.2107C28.3021 13.6311 27.863 13.9727 27.4851 13.7855C23.027 11.5773 15.5155 7.80422 14.962 7.31221C14.2185 6.65127 13.5575 7.47744 13.3097 7.80791C13.0618 8.13838 12.3183 9.04716 10.2528 7.47744C8.18742 5.90772 5.87414 5.65987 4.55227 5.3294C3.2304 4.99893 3.64348 3.84229 2.98255 3.18136C2.68523 2.88403 2.2347 2.83401 1.81896 2.88146C1.44008 2.92469 1.05612 2.63162 1.16255 2.26544C1.3146 1.74231 1.57732 1.20124 1.99135 1.03562C2.81752 0.705156 4.30465 2.76987 4.80035 3.26557C5.19691 3.66213 8.10488 4.25753 9.5093 4.50565C13.8605 5.49706 22.6291 7.39725 22.8935 7.06678C23.0583 6.86078 23.3386 6.49367 23.5863 6.16612C23.7813 5.90842 24.1701 5.89566 24.4085 6.11378C24.7797 6.45343 25.3035 6.84881 25.8676 7.06576C26.9416 7.47885 27.6026 7.47884 33.7988 8.8828Z" stroke="#FF0000"/>
</svg>

<svg width="40" height="18" fill="none" xmlns="http://www.w3.org/2000/svg"><path d="M33.799 8.883c6.196 1.404 4.379 2.562 5.04 4.876.165.605.346 2.03-.248 2.889-.744 1.074-2.066.413-2.479-.248-.413-.66 1.157-2.478 1.157-4.13 0-1.653-1.818-.249-3.057.247-1.24.496-2.066.165-2.892-.578-.826-.744-2.065-.661-2.726-.248-.33.206-.377.873-.325 1.52.033.42-.406.762-.784.575-4.458-2.209-11.97-5.982-12.523-6.474-.743-.66-1.405.165-1.652.496-.248.33-.992 1.24-3.057-.33-2.066-1.57-4.379-1.818-5.7-2.149-1.323-.33-.91-1.487-1.57-2.148-.298-.297-.748-.347-1.164-.3-.379.044-.763-.25-.656-.616.152-.523.414-1.064.828-1.23.827-.33 2.314 1.735 2.81 2.23.396.397 3.304.993 4.708 1.24 4.351.992 13.12 2.892 13.384 2.562.165-.206.446-.573.693-.9.195-.259.584-.271.823-.053.37.34.895.735 1.459.952 1.074.413 1.735.413 7.93 1.817Z" stroke="red"/></svg>
